X:0902
T:Hamilton's Rant.
M:C
L:1/8
Q:1/2=104
I: :: :|
Z:Jack Campin * www.campin.me.uk * 2009
K:G
Bdeg edcB|cAeA cAeA|Bdeg edcB|Agfa g2G2:|
BGGB BAGB|ADDA ADDc|BGGB BGGB|AFDF G2G2:|

